icons/svg/shopping/religion.svg

<?xml version="1.0" encoding="UTF-8" standalone="no"?>
<!-- Created with Inkscape (http://www.inkscape.org/) -->

<svg
   xmlns:dc="http://purl.org/dc/elements/1.1/"
   xmlns:cc="http://creativecommons.org/ns#"
   xmlns:rdf="http://www.w3.org/1999/02/22-rdf-syntax-ns#"
   xmlns:svg="http://www.w3.org/2000/svg"
   xmlns="http://www.w3.org/2000/svg"
   xmlns:sodipodi="http://sodipodi.sourceforge.net/DTD/sodipodi-0.dtd"
   xmlns:inkscape="http://www.inkscape.org/namespaces/inkscape"
   version="1.0"
   width="580"
   height="580"
   id="svg2"
   sodipodi:version="0.32"
   inkscape:version="0.91 r"
   sodipodi:docname="religion.svg"
   inkscape:output_extension="org.inkscape.output.svg.inkscape">
  <metadata
     id="metadata2975">
    <rdf:RDF>
      <cc:Work
         rdf:about="">
        <dc:format>image/svg+xml</dc:format>
        <dc:type
           rdf:resource="http://purl.org/dc/dcmitype/StillImage" />
        <cc:license
           rdf:resource="http://web.resource.org/cc/PublicDomain" />
        <dc:language>en</dc:language>
      </cc:Work>
    </rdf:RDF>
  </metadata>
  <sodipodi:namedview
     inkscape:window-height="1004"
     inkscape:window-width="1920"
     inkscape:pageshadow="2"
     inkscape:pageopacity="0.0"
     guidetolerance="10.0"
     gridtolerance="10.0"
     objecttolerance="10.0"
     borderopacity="1.0"
     bordercolor="#666666"
     pagecolor="#ffffff"
     id="base"
     inkscape:zoom="0.92167712"
     inkscape:cx="141.81646"
     inkscape:cy="268.91564"
     inkscape:window-x="1680"
     inkscape:window-y="0"
     inkscape:current-layer="svg2"
     showgrid="false"
     inkscape:window-maximized="1" />
  <defs
     id="defs4">
    <inkscape:perspective
       sodipodi:type="inkscape:persp3d"
       inkscape:vp_x="0 : 290 : 1"
       inkscape:vp_y="0 : 1000 : 0"
       inkscape:vp_z="580 : 290 : 1"
       inkscape:persp3d-origin="290 : 193.33333 : 1"
       id="perspective2441" />
    <inkscape:perspective
       id="perspective2466"
       inkscape:persp3d-origin="372.04724 : 350.78739 : 1"
       inkscape:vp_z="744.09448 : 526.18109 : 1"
       inkscape:vp_y="0 : 1000 : 0"
       inkscape:vp_x="0 : 526.18109 : 1"
       sodipodi:type="inkscape:persp3d" />
    <inkscape:perspective
       id="perspective3333"
       inkscape:persp3d-origin="372.04724 : 350.78739 : 1"
       inkscape:vp_z="744.09448 : 526.18109 : 1"
       inkscape:vp_y="0 : 1000 : 0"
       inkscape:vp_x="0 : 526.18109 : 1"
       sodipodi:type="inkscape:persp3d" />
    <inkscape:perspective
       id="perspective3401"
       inkscape:persp3d-origin="372.04724 : 350.78739 : 1"
       inkscape:vp_z="744.09448 : 526.18109 : 1"
       inkscape:vp_y="0 : 1000 : 0"
       inkscape:vp_x="0 : 526.18109 : 1"
       sodipodi:type="inkscape:persp3d" />
    <inkscape:perspective
       id="perspective3464"
       inkscape:persp3d-origin="372.04724 : 350.78739 : 1"
       inkscape:vp_z="744.09448 : 526.18109 : 1"
       inkscape:vp_y="0 : 1000 : 0"
       inkscape:vp_x="0 : 526.18109 : 1"
       sodipodi:type="inkscape:persp3d" />
  </defs>
  <g
     id="g1327">
    <path
       d="M 66.275,1.768 C 24.94,1.768 1.704,23.139 1.704,66.804 L 1.704,516.927 C 1.704,557.771 22.599,579.156 63.896,579.156 L 515.92,579.156 C 557.227,579.156 578.149,558.841 578.149,516.927 L 578.149,66.804 C 578.149,24.203 557.227,1.768 514.628,1.768 C 514.624,1.768 66.133,1.625 66.275,1.768 z "
       style="fill:#111;stroke:#eee;stroke-width:3.40799999"
       id="path1329" />
  </g>
  <path
     style="fill:#ffffff;fill-opacity:1;fill-rule:evenodd;stroke:#ffffff;stroke-width:7.42467546;stroke-linecap:round;stroke-linejoin:round;stroke-miterlimit:4;stroke-dasharray:none;stroke-opacity:1"
     d="M 382.13281 33.132812 L 215.35352 125.15039 L 385.00977 317.80859 L 547.47461 224.35547 L 382.13281 33.132812 z M 341.01758 92.253906 L 367.77734 123.61328 L 402.42383 104.01953 L 428.38867 134.44727 L 393.74219 154.04102 L 469.90234 243.29102 L 434.43555 263.34961 L 358.27539 174.09961 L 324.30859 193.30859 L 298.34375 162.88281 L 332.31055 143.67188 L 305.54883 112.3125 L 341.01758 92.253906 z "
     id="path3470" />
  <path
     style="fill:#ffffff;fill-opacity:1;fill-rule:evenodd;stroke:#ffffff;stroke-width:7.42467546;stroke-linecap:round;stroke-linejoin:round;stroke-miterlimit:4;stroke-dasharray:none;stroke-opacity:1"
     d="m 203.93651,152.98865 166.7794,189.78352 0.71891,71.88766 -168.2172,-190.14292 0.71889,-71.52826 z"
     id="path3474"
     inkscape:connector-curvature="0" />
  <path
     style="opacity:0.75;fill:#ffffff;fill-opacity:1;fill-rule:evenodd;stroke:#ffffff;stroke-width:12.23388672;stroke-linecap:round;stroke-linejoin:round;stroke-miterlimit:4;stroke-dasharray:none;stroke-opacity:1"
     d="m 549.63365,254.69664 -153.13349,89.72951 -0.10707,2.36499 153.00497,-89.66524 0.23562,-2.42926 z"
     id="path3476"
     sodipodi:nodetypes="ccccc"
     inkscape:connector-curvature="0" />
  <path
     sodipodi:nodetypes="ccccc"
     id="path3505"
     d="m 551.16804,283.24455 -153.13349,89.72951 -0.10707,2.36499 153.00497,-89.66523 0.23562,-2.42927 z"
     style="opacity:0.75;fill:#ffffff;fill-opacity:1;fill-rule:evenodd;stroke:#ffffff;stroke-width:12.23388672;stroke-linecap:round;stroke-linejoin:round;stroke-miterlimit:4;stroke-dasharray:none;stroke-opacity:1"
     inkscape:connector-curvature="0" />
  <path
     style="opacity:0.75;fill:#ffffff;fill-opacity:1;fill-rule:evenodd;stroke:#ffffff;stroke-width:12.23388672;stroke-linecap:round;stroke-linejoin:round;stroke-miterlimit:4;stroke-dasharray:none;stroke-opacity:1"
     d="m 550.40085,314.09404 -153.13349,89.72951 -0.10707,2.365 153.00497,-89.66524 0.23562,-2.42927 z"
     id="path3507"
     sodipodi:nodetypes="ccccc"
     inkscape:connector-curvature="0" />
  <path
     inkscape:connector-curvature="0"
     d="m 125.27555,158.34506 c 0,24.25663 -21.40291,37.09838 -21.40291,57.07442 0,15.69547 12.84174,28.53721 28.53721,28.53721 -8.56116,0 -14.2686,-7.1343 -14.2686,-14.2686 0,-17.12233 14.2686,-11.41489 14.2686,-28.53721 0,0 14.26861,5.79662 14.26861,20.06522 0,9.98803 -4.31961,19.95379 -11.14735,22.2947 14.23115,-1.57725 25.41595,-13.45758 25.41595,-28.09132 0,-35.67151 -35.67151,-57.07442 -35.67151,-57.07442 z m 28.53721,99.88024 c -5.70744,0 -25.59431,5.8858 -44.1435,11.59324 -19.976049,5.70744 -34.333828,24.16745 -34.333828,44.1435 l 0,1.33768 c 0,8.56116 5.70744,14.2686 14.268601,14.2686 l 0,114.14884 71.343027,0 0,-129.75512 c 0,-14.2686 14.26861,-21.49209 14.26861,-34.33383 0,-11.41489 -9.98803,-21.40291 -21.40291,-21.40291 z M 75.335432,463.98577 c 0,15.7048 9.332019,27.1224 17.389863,34.33382 -13.072042,6.82532 -31.65847,19.47223 -31.65847,37.0092 l 128.417445,0 c 0,-18.46001 -18.5865,-30.49051 -31.65847,-37.0092 8.05777,-7.21142 17.38987,-18.62902 17.38987,-34.33382 z"
     id="path4"
     style="fill:#ffffff;fill-opacity:1;stroke:none"
     sodipodi:nodetypes="cscscscscscsscccsssccccccc" />
</svg>

<svg width="580" height="580" viewBox="0 0 580 580" fill="none" xmlns="http://www.w3.org/2000/svg">
<g clip-path="url(#clip0)">
<path d="M66.2751 1.76863C24.9401 1.76863 1.7041 23.1396 1.7041 66.8046V516.928C1.7041 557.772 22.5991 579.157 63.8961 579.157H515.92C557.227 579.157 578.149 558.842 578.149 516.928V66.8046C578.149 24.2036 557.227 1.76863 514.628 1.76863C514.624 1.76863 66.1331 1.62563 66.2751 1.76863Z" fill="#111111" stroke="#EEEEEE" stroke-width="3.408"/>
<path fill-rule="evenodd" clip-rule="evenodd" d="M382.133 33.1328L215.354 125.15L385.01 317.809L547.475 224.355L382.133 33.1328ZM341.018 92.2539L367.777 123.613L402.424 104.02L428.389 134.447L393.742 154.041L469.902 243.291L434.436 263.35L358.275 174.1L324.309 193.309L298.344 162.883L332.311 143.672L305.549 112.312L341.018 92.2539Z" fill="white" stroke="white" stroke-width="7.42468" stroke-linecap="round" stroke-linejoin="round"/>
<path fill-rule="evenodd" clip-rule="evenodd" d="M203.937 152.988L370.716 342.772L371.435 414.659L203.218 224.517L203.937 152.988Z" fill="white" stroke="white" stroke-width="7.42468" stroke-linecap="round" stroke-linejoin="round"/>
<path opacity="0.75" fill-rule="evenodd" clip-rule="evenodd" d="M549.634 254.697L396.5 344.427L396.393 346.792L549.398 257.127L549.634 254.697V254.697Z" fill="white" stroke="white" stroke-width="12.2339" stroke-linecap="round" stroke-linejoin="round"/>
<path opacity="0.75" fill-rule="evenodd" clip-rule="evenodd" d="M551.168 283.244L398.035 372.974L397.928 375.339L550.933 285.673L551.168 283.244H551.168Z" fill="white" stroke="white" stroke-width="12.2339" stroke-linecap="round" stroke-linejoin="round"/>
<path opacity="0.75" fill-rule="evenodd" clip-rule="evenodd" d="M550.401 314.094L397.267 403.823L397.16 406.188L550.165 316.523L550.401 314.094V314.094Z" fill="white" stroke="white" stroke-width="12.2339" stroke-linecap="round" stroke-linejoin="round"/>
<path d="M125.276 158.346C125.276 182.602 103.873 195.444 103.873 215.42C103.873 231.116 116.714 243.957 132.41 243.957C123.849 243.957 118.141 236.823 118.141 229.689C118.141 212.566 132.41 218.274 132.41 201.152C132.41 201.152 146.679 206.948 146.679 221.217C146.679 231.205 142.359 241.171 135.531 243.511C149.762 241.934 160.947 230.054 160.947 215.42C160.947 179.749 125.276 158.346 125.276 158.346V158.346ZM153.813 258.226C148.105 258.226 128.219 264.112 109.669 269.819C89.6933 275.527 75.3355 293.987 75.3355 313.963V315.3C75.3355 323.862 81.0429 329.569 89.6041 329.569V443.718H160.947V313.963C160.947 299.694 175.216 292.471 175.216 279.629C175.216 268.214 165.228 258.226 153.813 258.226V258.226ZM75.3355 463.986C75.3355 479.691 84.6675 491.109 92.7254 498.32C79.6533 505.146 61.0669 517.792 61.0669 535.329H189.484C189.484 516.869 170.898 504.839 157.826 498.32C165.884 491.109 175.216 479.691 175.216 463.986H75.3355Z" fill="white"/>
</g>
<defs>
<clipPath id="clip0">
<path d="M0 0H580V580H0V0Z" fill="white"/>
</clipPath>
</defs>
</svg>
